X: 27452
T: Molly Bán
R: reel
M: 4/4
K: Edorian
EBBA B2 AG|F/E/D AD BDAD|EBBA B2 Bc|dBAc BEED|
EBBA B2 AG|F/E/D AD BDAD|EBBA B2 Bc|dBAc BEE2||
e2 Be e2fe|dBBA B2Bd|e2 Be e2fe|dBAF BEE2|
e2 Be e2fe|dBBA Bcde|f2 fe defe|dBAF BEE2||

